icons/new/svg/arrow.svg

<svg xmlns="http://www.w3.org/2000/svg" viewBox="0 0 24 24" baseProfile="tiny"><path fill="none" d="M0-.004h24v24H0z"/><path d="M309 111.996l-4 3v-18l12 13h-4.667l1.667 4-4 2-1-4z" fill="url(#_Linear1)" transform="translate(-298 -94)"/><path d="M307 97.248h-2.248V95h-1.504v2.248H301v1.504h2.248V101h1.504v-2.248H307v-1.504z" fill="url(#_Linear2)" transform="translate(-397.333 -125.67) scale(1.33333)"/><path d="M7.999 4.996l9.002 10H13l-1.407 1.406L8 18.996v-14z"/><path d="M10 12.996l2-.99 3 7.99-2 1-3-8z"/><defs><linearGradient id="_Linear1" x2="1" gradientUnits="userSpaceOnUse" gradientTransform="matrix(-12 -34 34 -12 318 122)"><stop offset="0" stop-color="#00a2ff"/><stop offset="1" stop-color="#0060a1"/></linearGradient><linearGradient id="_Linear2" x2="1" gradientUnits="userSpaceOnUse" gradientTransform="matrix(-9 -25.5 25.5 -9 313 115.253)"><stop offset="0" stop-color="#00a2ff"/><stop offset="1" stop-color="#0060a1"/></linearGradient></defs></svg>

<?xml version="1.0"?>
<!-- Converted with SVG Converter - Version 0.9.6 (Compiled Fri Dec  1 22:15:06 2017) - Copyright (C) 2011 Nokia -->
<svg xmlns="http://www.w3.org/2000/svg" viewBox="0 0 24 24" width="100%" xml:space="preserve" version="1.1" xmlns:xlink="http://www.w3.org/1999/xlink" height="100%" baseProfile="tiny">
 <g transform="matrix(1,0,0,1,-298,-94)">
  <g id="Arrow" transform="matrix(1,0,0,1,60,40.9959)">
   <rect style="fill:none;" width="24" y="53" x="238" height="24"/>
   <g>
    <g transform="matrix(1,0,0,1,-60,-40.9959)">
     <g>
      <path style="fill:url(#_Linear1);" d="M309,111.996L305,114.996L305,96.996L317,109.996L312.333,109.996L314,113.996L310,115.996L309,111.996Z"/>
     </g>
    </g>
    <g transform="matrix(1.33333,0,0,1.33333,-159.333,-72.6667)">
     <path style="fill:url(#_Linear2);" d="M307,97.248L304.752,97.248L304.752,95L303.248,95L303.248,97.248L301,97.248L301,98.752L303.248,98.752L303.248,101L304.752,101L304.752,98.752L307,98.752L307,97.248Z"/>
    </g>
    <g transform="matrix(0.941892,0,0,1.00645,17.5899,4.09413)">
     <g transform="matrix(1.15677,0,0,1.15677,-97.5903,-13.3964)">
      <path d="M294,57.883L302.262,66.472L298.59,66.472L297.299,67.68L294,69.908L294,57.883Z"/>
     </g>
     <g transform="matrix(-0.514118,0.296826,0.480095,0.831549,370.553,-78.4246)">
      <path d="M301.564,60.636L297.637,60.854L299.678,69.673L303.612,69.464L301.564,60.636Z"/>
     </g>
    </g>
   </g>
  </g>
 </g>
 <defs>
  <linearGradient x1="0" id="_Linear1" x2="1" gradientUnits="userSpaceOnUse" y2="0" y1="0" gradientTransform="matrix(-12,-34,34,-12,318,122)">
   <stop style="stop-color:rgb(0,162,255);stop-opacity:1" offset="0.0"/>
   <stop style="stop-color:rgb(0,96,161);stop-opacity:1" offset="1.0"/>
  </linearGradient>
  <linearGradient x1="0" id="_Linear2" x2="1" gradientUnits="userSpaceOnUse" y2="0" y1="0" gradientTransform="matrix(-9,-25.5,25.5,-9,313,115.253)">
   <stop style="stop-color:rgb(0,162,255);stop-opacity:1" offset="0.0"/>
   <stop style="stop-color:rgb(0,96,161);stop-opacity:1" offset="1.0"/>
  </linearGradient>
 </defs>
</svg>
